X: 1
T:Merry Blacksmith, The
M:C|
R:Reel
Z:As played by the Ceili band /SE
K:D
d2dA BAFA|ABdA BAFA|ABde f2ed|Beed dgfe|\
d2dA BAFA|ABdA BAFA|ABde f2ed|dBAF D4::\
a2ag f2fe|d2dA BAFA|ABde f2ed|Beed dgfe|\
a2ag f2fe|d2dA BAFA|ABde f2ed|dBAF D4:|
